X:106
M:2/4
L:1/8
K:D
|:f/g/|afdf|edef|dBAF|EDEF|af.df|edef|dBAF|D/D/D D:|

